src/assets/cards/8S.svg

<svg clip-rule="evenodd" fill-rule="evenodd" stroke-linejoin="round" stroke-miterlimit="2" viewBox="0 0 934 1300" xmlns="http://www.w3.org/2000/svg"><g fill-rule="nonzero"><path d="m30.12 156.849c.665-18.227 7.377-25.076 20.598-34.61-10.537-7.489-14.99-18.49-14.087-27.873 2.17-22.692 20.046-34.045 39.514-33.556 19.482.502 36.278 15.681 37.583 32.176 1.141 14.351-3.211 21.263-13.573 28.814 12.306 10.174 20.171 16.872 19.87 34.836-.301 17.963-15.856 39.339-42.976 39.991-27.121.652-47.593-21.539-46.929-39.778zm75.718.063c1.166-16.509-13.699-27.648-30.47-27.811-16.346-.175-30.96 13.523-30.96 28.338 0 15.931 19.005 24.574 31.298 24.624 14.915.05 29.128-10.926 30.132-25.151zm-5.357-59.059c.314-13.899-12.745-23.871-26.205-23.47-11.98.364-24.674 9.346-24.687 20.962 0 14.551 14.426 21.801 26.745 22.077 11.164.251 23.896-9.057 24.147-19.569z"/><path d="m903.213 1143.15c-.665 18.23-7.376 25.08-20.598 34.62 10.537 7.48 14.991 18.49 14.087 27.86-2.17 22.7-20.033 34.05-39.514 33.56-19.481-.5-36.278-15.68-37.583-32.17-1.141-14.35 3.212-21.26 13.573-28.82-12.306-10.17-20.171-16.87-19.87-34.83s15.856-39.33 42.977-39.99c27.12-.66 47.593 21.54 46.928 39.77zm-75.717-.06c-1.167 16.51 13.698 27.65 30.47 27.82 16.345.17 30.959-13.53 30.959-28.35 0-15.92-19.017-24.57-31.298-24.62-14.915-.05-29.14 10.93-30.131 25.15zm5.356 59.05c-.313 13.91 12.745 23.88 26.205 23.48 11.98-.36 24.675-9.34 24.675-20.97.025-14.54-14.426-21.8-26.732-22.07-11.165-.25-23.897 9.06-24.148 19.56z"/><path d="m220.221 283.04c.083-8.442-6.584-8.604-6.542-2.442-.542 30.954-26.708 46.192-45.75 42.579-29.292-5.575-38.667-34.675-38.375-51.816.875-52.9 54.125-91.909 102.167-159.725 35.208 61.208 93.333 109.287 96.75 156.604 4.583 62.912-75.042 86.375-86.417 13.054-.708-5.179-6.792-7.504-6.333-.271 1.708 20.096-.75 28.467 21.916 78h-59.25c13.125-23.146 20.959-51.562 21.834-75.983z"/><path d="m684.971 283.04c.041-8.442-6.625-8.604-6.542-2.442-.583 30.954-26.75 46.192-45.75 42.579-29.333-5.575-38.708-34.675-38.417-51.816.875-52.9 54.125-91.909 102.167-159.725 35.208 61.208 93.333 109.287 96.75 156.604 4.583 62.912-75 86.375-86.375 13.054-.75-5.179-6.833-7.504-6.375-.271 1.75 20.096-.708 28.467 21.958 78h-59.25c13.084-23.146 20.917-51.562 21.834-75.983z"/><path d="m454.346 491.89c.041-8.442-6.625-8.6-6.542-2.442-.583 30.954-26.75 46.196-45.75 42.579-29.333-5.575-38.667-34.675-38.417-51.812.875-52.904 54.125-91.913 102.167-159.729 35.208 61.212 93.333 109.291 96.792 156.608 4.541 62.908-75.042 86.371-86.417 13.05-.75-5.179-6.833-7.504-6.375-.271 1.75 20.096-.708 28.467 21.958 78h-59.25c13.125-23.146 20.917-51.562 21.834-75.983z"/><path d="m220.221 700.74c.083-8.442-6.584-8.6-6.542-2.442-.542 30.954-26.708 46.196-45.75 42.579-29.292-5.575-38.667-34.675-38.375-51.812.875-52.904 54.125-91.913 102.167-159.729 35.208 61.212 93.333 109.291 96.75 156.608 4.583 62.908-75.042 86.375-86.417 13.054-.708-5.179-6.792-7.508-6.333-.271 1.708 20.092-.75 28.463 21.916 77.996h-59.25c13.125-23.146 20.959-51.562 21.834-75.983z"/><path d="m684.971 700.74c.041-8.442-6.625-8.6-6.542-2.442-.583 30.954-26.75 46.196-45.75 42.579-29.333-5.575-38.708-34.675-38.417-51.812.875-52.904 54.125-91.913 102.167-159.729 35.208 61.212 93.333 109.291 96.75 156.608 4.583 62.908-75 86.375-86.375 13.054-.75-5.179-6.833-7.508-6.375-.271 1.75 20.092-.708 28.463 21.958 77.996h-59.25c13.084-23.146 20.917-51.562 21.834-75.983z"/><path d="m685.012 1016.25c.042 8.44-6.625 8.6-6.541 2.44-.584-30.95-26.75-46.192-45.75-42.575-29.334 5.575-38.709 34.675-38.417 51.815.875 52.9 54.125 91.91 102.167 159.73 35.208-61.22 93.333-109.29 96.75-156.61 4.583-62.91-75-86.373-86.375-13.05-.75 5.18-6.834 7.5-6.375.27 1.75-20.097-.709-28.468 21.958-78.001h-59.25c13.125 23.146 20.917 51.563 21.833 75.981z"/><path d="m454.387 810.84c.042 8.437-6.625 8.6-6.541 2.442-.584-30.955-26.75-46.196-45.75-42.58-29.334 5.571-38.667 34.675-38.417 51.813.875 52.904 54.125 91.912 102.167 159.729 35.208-61.212 93.333-109.292 96.791-156.608 4.542-62.909-75.041-86.375-86.416-13.054-.75 5.179-6.834 7.504-6.375.27 1.75-20.091-.709-28.462 21.958-77.995h-59.25c13.125 23.145 20.917 51.562 21.833 75.983z"/><path d="m220.262 1016.25c.084 8.44-6.583 8.6-6.541 2.44-.542-30.95-26.709-46.192-45.75-42.575-29.292 5.575-38.667 34.675-38.375 51.815.875 52.9 54.125 91.91 102.166 159.73 35.209-61.22 93.334-109.29 96.75-156.61 4.584-62.91-75.041-86.373-86.375-13.05-.75 5.18-6.833 7.5-6.375.27 1.709-20.097-.708-28.468 21.917-78.001h-59.25c13.125 23.146 20.958 51.563 21.833 75.981z"/><path d="m75.887 300.257c.042-3.634-3.75-1.938-4.25-.796-4.833 8.275-11.916 10.2-18.958 7.216-6.917-2.954-10.833-9.5-10.208-18.841 1.291-14.325 12.666-30 18.166-38.859 5.209-8.041 10.917-17.591 16.959-29.808 7.083 14.013 10.666 18 18.375 30.796 6.75 11.271 16.208 22.304 16.916 35.929 0 10.35-4.333 20.129-14.125 21.913-5.583 1.008-10.75-1.842-14.625-8.488-1.166-1.692-3.541-.812-3.5 1.508.709 8.721 4 16.596 11.792 25.884h-28.708c5.916-6.567 11.875-15.434 12.166-26.454z"/><path d="m857.446 999.743c-.042 3.637 3.75 1.937 4.25.797 4.833-8.276 11.917-10.201 18.958-7.217 6.917 2.954 10.834 9.497 10.209 18.837-1.292 14.33-12.667 30-18.167 38.86-5.208 8.04-10.917 17.59-16.958 29.81-7.084-14.01-10.667-18-18.375-30.79-6.75-11.28-16.209-22.31-16.917-35.93 0-10.35 4.333-20.133 14.125-21.917 5.583-1.008 10.75 1.842 14.625 8.487 1.167 1.69 3.542.81 3.5-1.507-.708-8.721-4-16.596-11.792-25.884h28.709c-5.917 6.567-11.875 15.434-12.167 26.454z"/></g></svg>

<?xml version="1.0" encoding="UTF-8" standalone="no"?>
<!DOCTYPE svg PUBLIC "-//W3C//DTD SVG 1.1//EN" "http://www.w3.org/Graphics/SVG/1.1/DTD/svg11.dtd">
<svg width="100%" height="100%" viewBox="0 0 934 1300" version="1.1" xmlns="http://www.w3.org/2000/svg" xmlns:xlink="http://www.w3.org/1999/xlink" xml:space="preserve" xmlns:serif="http://www.serif.com/" style="fill-rule:evenodd;clip-rule:evenodd;stroke-linejoin:round;stroke-miterlimit:2;">
    <g id="_8S" serif:id="8S">
        <path d="M30.12,156.849C30.785,138.622 37.497,131.773 50.718,122.239C40.181,114.75 35.728,103.749 36.631,94.366C38.801,71.674 56.677,60.321 76.145,60.81C95.627,61.312 112.423,76.491 113.728,92.986C114.869,107.337 110.517,114.249 100.155,121.8C112.461,131.974 120.326,138.672 120.025,156.636C119.724,174.599 104.169,195.975 77.049,196.627C49.928,197.279 29.456,175.088 30.12,156.849ZM105.838,156.912C107.004,140.403 92.139,129.264 75.368,129.101C59.022,128.926 44.408,142.624 44.408,157.439C44.408,173.37 63.413,182.013 75.706,182.063C90.621,182.113 104.834,171.137 105.838,156.912ZM100.481,97.853C100.795,83.954 87.736,73.982 74.276,74.383C62.296,74.747 49.602,83.729 49.589,95.345C49.589,109.896 64.015,117.146 76.334,117.422C87.498,117.673 100.23,108.365 100.481,97.853Z" style="fill-rule:nonzero;"/>
        <path d="M903.213,1143.15C902.548,1161.38 895.837,1168.23 882.615,1177.77C893.152,1185.25 897.606,1196.26 896.702,1205.63C894.532,1228.33 876.669,1239.68 857.188,1239.19C837.707,1238.69 820.91,1223.51 819.605,1207.02C818.464,1192.67 822.817,1185.76 833.178,1178.2C820.872,1168.03 813.007,1161.33 813.308,1143.37C813.609,1125.41 829.164,1104.04 856.285,1103.38C883.405,1102.72 903.878,1124.92 903.213,1143.15ZM827.496,1143.09C826.329,1159.6 841.194,1170.74 857.966,1170.91C874.311,1171.08 888.925,1157.38 888.925,1142.56C888.925,1126.64 869.908,1117.99 857.627,1117.94C842.712,1117.89 828.487,1128.87 827.496,1143.09ZM832.852,1202.14C832.539,1216.05 845.597,1226.02 859.057,1225.62C871.037,1225.26 883.732,1216.28 883.732,1204.65C883.757,1190.11 869.306,1182.85 857,1182.58C845.835,1182.33 833.103,1191.64 832.852,1202.14Z" style="fill-rule:nonzero;"/>
        <path d="M220.221,283.04C220.304,274.598 213.637,274.436 213.679,280.598C213.137,311.552 186.971,326.79 167.929,323.177C138.637,317.602 129.262,288.502 129.554,271.361C130.429,218.461 183.679,179.452 231.721,111.636C266.929,172.844 325.054,220.923 328.471,268.24C333.054,331.152 253.429,354.615 242.054,281.294C241.346,276.115 235.262,273.79 235.721,281.023C237.429,301.119 234.971,309.49 257.637,359.023L198.387,359.023C211.512,335.877 219.346,307.461 220.221,283.04Z" style="fill-rule:nonzero;"/>
        <path d="M684.971,283.04C685.012,274.598 678.346,274.436 678.429,280.598C677.846,311.552 651.679,326.79 632.679,323.177C603.346,317.602 593.971,288.502 594.262,271.361C595.137,218.461 648.387,179.452 696.429,111.636C731.637,172.844 789.762,220.923 793.179,268.24C797.762,331.152 718.179,354.615 706.804,281.294C706.054,276.115 699.971,273.79 700.429,281.023C702.179,301.119 699.721,309.49 722.387,359.023L663.137,359.023C676.221,335.877 684.054,307.461 684.971,283.04Z" style="fill-rule:nonzero;"/>
        <path d="M454.346,491.89C454.387,483.448 447.721,483.29 447.804,489.448C447.221,520.402 421.054,535.644 402.054,532.027C372.721,526.452 363.387,497.352 363.637,480.215C364.512,427.311 417.762,388.302 465.804,320.486C501.012,381.698 559.137,429.777 562.596,477.094C567.137,540.002 487.554,563.465 476.179,490.144C475.429,484.965 469.346,482.64 469.804,489.873C471.554,509.969 469.096,518.34 491.762,567.873L432.512,567.873C445.637,544.727 453.429,516.311 454.346,491.89Z" style="fill-rule:nonzero;"/>
        <path d="M220.221,700.74C220.304,692.298 213.637,692.14 213.679,698.298C213.137,729.252 186.971,744.494 167.929,740.877C138.637,735.302 129.262,706.202 129.554,689.065C130.429,636.161 183.679,597.152 231.721,529.336C266.929,590.548 325.054,638.627 328.471,685.944C333.054,748.852 253.429,772.319 242.054,698.998C241.346,693.819 235.262,691.49 235.721,698.727C237.429,718.819 234.971,727.19 257.637,776.723L198.387,776.723C211.512,753.577 219.346,725.161 220.221,700.74Z" style="fill-rule:nonzero;"/>
        <path d="M684.971,700.74C685.012,692.298 678.346,692.14 678.429,698.298C677.846,729.252 651.679,744.494 632.679,740.877C603.346,735.302 593.971,706.202 594.262,689.065C595.137,636.161 648.387,597.152 696.429,529.336C731.637,590.548 789.762,638.627 793.179,685.944C797.762,748.852 718.179,772.319 706.804,698.998C706.054,693.819 699.971,691.49 700.429,698.727C702.179,718.819 699.721,727.19 722.387,776.723L663.137,776.723C676.221,753.577 684.054,725.161 684.971,700.74Z" style="fill-rule:nonzero;"/>
        <path d="M685.012,1016.25C685.054,1024.69 678.387,1024.85 678.471,1018.69C677.887,987.74 651.721,972.498 632.721,976.115C603.387,981.69 594.012,1010.79 594.304,1027.93C595.179,1080.83 648.429,1119.84 696.471,1187.66C731.679,1126.44 789.804,1078.37 793.221,1031.05C797.804,968.14 718.221,944.677 706.846,1018C706.096,1023.18 700.012,1025.5 700.471,1018.27C702.221,998.173 699.762,989.802 722.429,940.269L663.179,940.269C676.304,963.415 684.096,991.832 685.012,1016.25Z" style="fill-rule:nonzero;"/>
        <path d="M454.387,810.84C454.429,819.277 447.762,819.44 447.846,813.282C447.262,782.327 421.096,767.086 402.096,770.702C372.762,776.273 363.429,805.377 363.679,822.515C364.554,875.419 417.804,914.427 465.846,982.244C501.054,921.032 559.179,872.952 562.637,825.636C567.179,762.727 487.596,739.261 476.221,812.582C475.471,817.761 469.387,820.086 469.846,812.852C471.596,792.761 469.137,784.39 491.804,734.857L432.554,734.857C445.679,758.002 453.471,786.419 454.387,810.84Z" style="fill-rule:nonzero;"/>
        <path d="M220.262,1016.25C220.346,1024.69 213.679,1024.85 213.721,1018.69C213.179,987.74 187.012,972.498 167.971,976.115C138.679,981.69 129.304,1010.79 129.596,1027.93C130.471,1080.83 183.721,1119.84 231.762,1187.66C266.971,1126.44 325.096,1078.37 328.512,1031.05C333.096,968.14 253.471,944.677 242.137,1018C241.387,1023.18 235.304,1025.5 235.762,1018.27C237.471,998.173 235.054,989.802 257.679,940.269L198.429,940.269C211.554,963.415 219.387,991.832 220.262,1016.25Z" style="fill-rule:nonzero;"/>
        <path d="M75.887,300.257C75.929,296.623 72.137,298.319 71.637,299.461C66.804,307.736 59.721,309.661 52.679,306.677C45.762,303.723 41.846,297.177 42.471,287.836C43.762,273.511 55.137,257.836 60.637,248.977C65.846,240.936 71.554,231.386 77.596,219.169C84.679,233.182 88.262,237.169 95.971,249.965C102.721,261.236 112.179,272.269 112.887,285.894C112.887,296.244 108.554,306.023 98.762,307.807C93.179,308.815 88.012,305.965 84.137,299.319C82.971,297.627 80.596,298.507 80.637,300.827C81.346,309.548 84.637,317.423 92.429,326.711L63.721,326.711C69.637,320.144 75.596,311.277 75.887,300.257Z" style="fill-rule:nonzero;"/>
        <path d="M857.446,999.743C857.404,1003.38 861.196,1001.68 861.696,1000.54C866.529,992.264 873.613,990.339 880.654,993.323C887.571,996.277 891.488,1002.82 890.863,1012.16C889.571,1026.49 878.196,1042.16 872.696,1051.02C867.488,1059.06 861.779,1068.61 855.738,1080.83C848.654,1066.82 845.071,1062.83 837.363,1050.04C830.613,1038.76 821.154,1027.73 820.446,1014.11C820.446,1003.76 824.779,993.977 834.571,992.193C840.154,991.185 845.321,994.035 849.196,1000.68C850.363,1002.37 852.738,1001.49 852.696,999.173C851.988,990.452 848.696,982.577 840.904,973.289L869.613,973.289C863.696,979.856 857.738,988.723 857.446,999.743Z" style="fill-rule:nonzero;"/>
    </g>
</svg>
